img/svg/responsibility-icon2.svg

<svg width="80" height="80" viewBox="0 0 80 80" fill="none" xmlns="http://www.w3.org/2000/svg">
<circle cx="40" cy="40" r="40" fill="#0055FF" fill-opacity="0.03"/>
<path fill-rule="evenodd" clip-rule="evenodd" d="M39.6824 22.0721C39.8825 21.976 40.1155 21.976 40.3156 22.0721L48.9493 26.2209C49.1988 26.3408 49.3592 26.5913 49.3636 26.8681C49.368 27.1449 49.2156 27.4004 48.97 27.5282L40.3363 32.019C40.1249 32.129 39.8731 32.129 39.6617 32.019L31.0265 27.5282C30.7809 27.4005 30.6285 27.1449 30.6329 26.8681C30.6373 26.5913 30.7977 26.3408 31.0472 26.2209L39.6824 22.0721ZM32.9977 26.9056L39.999 30.5467L46.999 26.9056L39.999 23.5419L32.9977 26.9056Z" fill="#2093FF"/>
<path fill-rule="evenodd" clip-rule="evenodd" d="M30.9844 26.2548C31.2027 26.1223 31.4744 26.1133 31.701 26.2311L40.3362 30.722C40.5781 30.8478 40.7299 31.0978 40.7299 31.3705V41.8447C40.7299 42.096 40.6009 42.3296 40.3882 42.4634C40.1755 42.5972 39.909 42.6124 39.6825 42.5036L31.0473 38.3563C30.794 38.2346 30.6328 37.9785 30.6328 37.6974V26.8796C30.6328 26.6242 30.7661 26.3873 30.9844 26.2548ZM32.0947 28.0836V37.2376L39.268 40.6828V31.8142L32.0947 28.0836Z" fill="#2093FF"/>
<path fill-rule="evenodd" clip-rule="evenodd" d="M49.0135 26.2548C49.2319 26.3873 49.3652 26.6242 49.3652 26.8796V37.6974C49.3652 37.9784 49.204 38.2346 48.9507 38.3563L40.317 42.5036C40.0905 42.6124 39.824 42.5972 39.6113 42.4634C39.3986 42.3296 39.2695 42.096 39.2695 41.8447V31.3705C39.2695 31.0978 39.4213 30.8478 39.6632 30.722L48.2969 26.2312C48.5235 26.1133 48.7952 26.1223 49.0135 26.2548ZM40.7314 31.8142V40.6827L47.9033 37.2376V28.0837L40.7314 31.8142Z" fill="#2093FF"/>
<path fill-rule="evenodd" clip-rule="evenodd" d="M31.0481 37.0387C31.2482 36.9425 31.4811 36.9425 31.6812 37.0386L40.3165 41.1874C40.566 41.3073 40.7264 41.5579 40.7308 41.8347C40.7352 42.1115 40.5828 42.367 40.3372 42.4947L31.702 46.9856C31.4905 47.0955 31.2388 47.0955 31.0274 46.9856L22.3936 42.4947C22.1481 42.367 21.9957 42.1115 22.0001 41.8347C22.0045 41.5579 22.1648 41.3073 22.4144 41.1874L31.0481 37.0387ZM31.3647 38.5084L24.3647 41.8721L31.3647 45.5132L38.366 41.8721L31.3647 38.5084Z" fill="#2093FF"/>
<path fill-rule="evenodd" clip-rule="evenodd" d="M22.3516 41.2213C22.57 41.0888 22.8416 41.0799 23.0682 41.1977L31.702 45.6886C31.9439 45.8144 32.0956 46.0644 32.0956 46.337V57.2688C32.0956 57.5252 31.9613 57.7629 31.7416 57.8951C31.522 58.0273 31.2491 58.0348 31.0225 57.9147L22.3887 53.3405C22.1496 53.2138 22 52.9653 22 52.6947V41.8462C22 41.5908 22.1333 41.3539 22.3516 41.2213ZM23.4619 43.0503V52.2547L30.6338 56.0544V46.7807L23.4619 43.0503Z" fill="#2093FF"/>
<path fill-rule="evenodd" clip-rule="evenodd" d="M40.3783 41.2214C40.5966 41.3539 40.7299 41.5908 40.7299 41.8462V52.6947C40.7299 52.9653 40.5803 53.2139 40.3411 53.3406L31.7059 57.9147C31.4793 58.0348 31.2065 58.0273 30.9868 57.8951C30.7671 57.7629 30.6328 57.5252 30.6328 57.2688V46.337C30.6328 46.0643 30.7846 45.8143 31.0265 45.6885L39.6617 41.1977C39.8883 41.0798 40.16 41.0888 40.3783 41.2214ZM32.0947 46.7808V56.0545L39.268 52.2547V43.0502L32.0947 46.7808Z" fill="#2093FF"/>
<path fill-rule="evenodd" clip-rule="evenodd" d="M49.2931 37.3808C49.4679 37.7447 49.3147 38.1814 48.9508 38.3562L41.6342 41.8721L48.6343 45.5131L55.6354 41.8721L51.5514 39.9102C51.1875 39.7354 51.0342 39.2987 51.209 38.9349C51.3838 38.571 51.8205 38.4177 52.1844 38.5925L57.586 41.1873C57.8355 41.3072 57.9959 41.5578 58.0003 41.8346C58.0047 42.1114 57.8523 42.3669 57.6067 42.4947L48.9715 46.9855C48.7601 47.0955 48.5083 47.0954 48.2969 46.9855L39.6632 42.4946C39.4176 42.3669 39.2652 42.1114 39.2696 41.8346C39.274 41.5578 39.4344 41.3073 39.6839 41.1874L48.3177 37.0386C48.6815 36.8638 49.1182 37.017 49.2931 37.3808Z" fill="#2093FF"/>
<path fill-rule="evenodd" clip-rule="evenodd" d="M39.6212 41.2213C39.8395 41.0888 40.1112 41.0799 40.3378 41.1977L48.9715 45.6886C49.2134 45.8144 49.3652 46.0644 49.3652 46.337V57.2688C49.3652 57.5252 49.2308 57.7629 49.0112 57.8951C48.7915 58.0273 48.5186 58.0348 48.292 57.9147L39.6583 53.3405C39.4191 53.2138 39.2695 52.9653 39.2695 52.6947V41.8462C39.2695 41.5908 39.4028 41.3539 39.6212 41.2213ZM40.7314 43.0503V52.2547L47.9033 56.0544V46.7807L40.7314 43.0503Z" fill="#2093FF"/>
<path fill-rule="evenodd" clip-rule="evenodd" d="M57.6478 41.2214C57.8661 41.3539 57.9994 41.5908 57.9994 41.8462V52.6947C57.9994 52.9653 57.8498 53.2139 57.6107 53.3406L48.9754 57.9147C48.7489 58.0348 48.476 58.0273 48.2563 57.8951C48.0367 57.7629 47.9023 57.5252 47.9023 57.2688V46.337C47.9023 46.0643 48.0541 45.8143 48.296 45.6885L56.9313 41.1977C57.1578 41.0798 57.4295 41.0888 57.6478 41.2214ZM49.3642 46.7808V56.0545L56.5376 52.2547V43.0502L49.3642 46.7808Z" fill="#2093FF"/>
</svg>

<svg width="80" height="80" viewBox="0 0 80 80" fill="none" xmlns="http://www.w3.org/2000/svg"><circle cx="40" cy="40" r="40" fill="#05F" fill-opacity=".03"/><path fill-rule="evenodd" clip-rule="evenodd" d="M39.682 22.072a.731.731 0 01.634 0l8.633 4.149a.73.73 0 01.021 1.307l-8.634 4.491a.73.73 0 01-.674 0l-8.636-4.49a.731.731 0 01.021-1.308l8.635-4.149zm-6.684 4.834l7.001 3.64 7-3.64-7-3.364-7.001 3.364z" fill="#2093FF"/><path fill-rule="evenodd" clip-rule="evenodd" d="M30.984 26.255a.731.731 0 01.717-.024l8.635 4.491a.731.731 0 01.394.648v10.475a.73.73 0 01-1.047.659l-8.636-4.148a.731.731 0 01-.414-.659V26.88a.73.73 0 01.351-.625zm1.11 1.829v9.154l7.174 3.445v-8.869l-7.173-3.73z" fill="#2093FF"/><path fill-rule="evenodd" clip-rule="evenodd" d="M49.014 26.255a.73.73 0 01.351.625v10.817a.731.731 0 01-.414.66l-8.634 4.147a.73.73 0 01-1.047-.66V31.37a.73.73 0 01.393-.648l8.634-4.49a.73.73 0 01.717.023zm-8.283 5.56v8.868l7.172-3.445v-9.154l-7.172 3.73z" fill="#2093FF"/><path fill-rule="evenodd" clip-rule="evenodd" d="M31.048 37.039a.73.73 0 01.633 0l8.635 4.148a.731.731 0 01.021 1.308l-8.635 4.49a.731.731 0 01-.675 0l-8.633-4.49a.73.73 0 01.02-1.308l8.634-4.148zm.317 1.47l-7 3.363 7 3.641 7.001-3.64-7.001-3.365z" fill="#2093FF"/><path fill-rule="evenodd" clip-rule="evenodd" d="M22.352 41.221a.731.731 0 01.716-.023l8.634 4.49a.73.73 0 01.394.649v10.932a.73.73 0 01-1.073.646l-8.634-4.575a.731.731 0 01-.389-.645V41.846c0-.255.133-.492.352-.625zm1.11 1.83v9.204l7.172 3.8V46.78l-7.172-3.73z" fill="#2093FF"/><path fill-rule="evenodd" clip-rule="evenodd" d="M40.378 41.221a.73.73 0 01.352.625v10.849c0 .27-.15.519-.389.646l-8.635 4.574a.73.73 0 01-1.073-.646V46.337c0-.273.152-.523.393-.649l8.636-4.49a.73.73 0 01.716.023zm-8.283 5.56v9.273l7.173-3.8V43.05l-7.173 3.73z" fill="#2093FF"/><path fill-rule="evenodd" clip-rule="evenodd" d="M49.293 37.38a.73.73 0 01-.342.976l-7.317 3.516 7 3.641 7.001-3.64-4.084-1.963a.73.73 0 11.633-1.317l5.402 2.594a.731.731 0 01.02 1.308l-8.635 4.49a.731.731 0 01-.674 0l-8.634-4.49a.73.73 0 01.02-1.308l8.635-4.148a.731.731 0 01.975.342z" fill="#2093FF"/><path fill-rule="evenodd" clip-rule="evenodd" d="M39.621 41.221a.731.731 0 01.717-.023l8.633 4.49a.73.73 0 01.394.649v10.932a.731.731 0 01-1.073.646l-8.634-4.575a.73.73 0 01-.389-.645V41.846c0-.255.134-.492.352-.625zm1.11 1.83v9.204l7.172 3.8V46.78l-7.172-3.73z" fill="#2093FF"/><path fill-rule="evenodd" clip-rule="evenodd" d="M57.648 41.221a.73.73 0 01.351.625v10.849c0 .27-.15.519-.388.646l-8.636 4.574a.73.73 0 01-1.073-.646V46.337c0-.273.152-.523.394-.649l8.635-4.49a.73.73 0 01.717.023zm-8.284 5.56v9.273l7.174-3.8V43.05l-7.174 3.73z" fill="#2093FF"/></svg>
